packages/calcite-ui-icons/icons/arrow-curve-tool-32.svg

<?xml version="1.0" encoding="UTF-8"?><svg id="icons" xmlns="http://www.w3.org/2000/svg" viewBox="0 0 32 32"><defs><style>.cls-1{fill:none;}</style></defs><path d="M23.63867,1l-.63867.76953,2.99036,2.38757c-5.14526.52551-9.81189,2.63391-13.51398,5.8429h-2.47638v2.47845c-3.21136,3.70337-5.3186,8.37305-5.84283,13.52155h-1.15717v3h3v-3h-.86493c.52765-4.95471,2.60529-9.4494,5.73303-13h2.1319v-2.11249c3.52771-3.10736,7.98364-5.16791,12.90009-5.7135l-2.90009,3.14435.73145.68164,4.20117-4.54688-4.29395-3.45312ZM4,27h1v1h-.91486c-.04919-.02069-.08582-.02887-.08514,0v-1ZM12,12h-1v-1h1v1Z"/><rect class="cls-1" width="32" height="32"/></svg>

<svg xmlns="http://www.w3.org/2000/svg" viewBox="0 0 32 32"><path d="M23.639 1L23 1.77l2.99 2.387A24.366 24.366 0 0 0 12.476 10H10v2.478A24.357 24.357 0 0 0 4.157 26H3v3h3v-3h-.865a23.393 23.393 0 0 1 5.733-13H13v-2.112a23.384 23.384 0 0 1 12.9-5.714L23 8.318l.731.682 4.202-4.547L23.639 1zM4 27h1v1h-.915C4.036 27.98 4 27.971 4 28v-1zm8-15h-1v-1h1v1z"/><path fill="none" d="M0 0h32v32H0z"/></svg>
